lib/radiotmp/nrk-rotate-expressive.svg

<svg width="24" height="24" viewBox="0 0 24 24" fill="none" xmlns="http://www.w3.org/2000/svg">
<path d="M15.6507 13.8393C15.8821 13.6079 16.212 13.504 16.5343 13.5609L20.83 14.32L20.84 14.33L21.5991 18.6257C21.656 18.948 21.5521 19.2779 21.3207 19.5093C20.7472 20.0828 19.7656 19.7738 19.6241 18.9753L19.32 17.26L18.2 18.38C14.68 21.89 8.97997 21.89 5.46997 18.38L5.22997 18.11C4.10051 16.8864 3.37092 15.4352 3.04123 13.9156C2.90165 13.2723 3.47507 12.7375 4.12681 12.8301C4.58428 12.8951 4.93533 13.2582 5.04744 13.7065C5.34558 14.8985 5.95788 16.0279 6.88997 16.96C7.11997 17.19 7.36997 17.4 7.61997 17.59C10.36 19.66 14.28 19.46 16.78 16.96L17.9 15.84L16.1847 15.5359C15.3862 15.3944 15.0772 14.4128 15.6507 13.8393Z" fill="black"/>
<path d="M5.76999 8.16L7.49356 8.46556C8.29009 8.60678 8.59957 9.58496 8.02922 10.1586C7.79791 10.3913 7.46736 10.496 7.14429 10.4389L2.84999 9.68L2.09089 5.38437C2.03394 5.06214 2.13835 4.73243 2.37041 4.50172C2.94347 3.93197 3.92066 4.24258 4.05958 5.03864L4.35999 6.76L5.47999 5.64C8.98999 2.12 14.69 2.12 18.2 5.64C18.24 5.68 18.275 5.7225 18.31 5.765C18.345 5.8075 18.38 5.85 18.42 5.89C18.57 6.05 18.72 6.22 18.86 6.39C18.95 6.49997 19.0399 6.61994 19.1299 6.73992C19.2899 6.95992 19.43 7.18 19.57 7.41C19.5812 7.42869 19.5938 7.44738 19.6068 7.4666C19.6285 7.49878 19.6512 7.53244 19.67 7.57C19.85 7.88 20 8.21 20.14 8.54C20.145 8.555 20.1525 8.5725 20.16 8.59C20.1675 8.6075 20.175 8.625 20.18 8.64C20.3691 9.11558 20.5174 9.59992 20.6248 10.0914C20.7654 10.7353 20.1922 11.2722 19.5397 11.1794C19.084 11.1146 18.7338 10.7536 18.6216 10.3072C18.5068 9.85022 18.3462 9.4018 18.14 8.97L18.08 8.85C17.93 8.56 17.77 8.28 17.58 8.01C17.5613 7.9913 17.5465 7.9687 17.5307 7.94465C17.5212 7.93012 17.5113 7.91506 17.5 7.9C17.29 7.6 17.05 7.31 16.78 7.04C14.05 4.31 9.61999 4.31 6.88999 7.04L5.76999 8.16Z" fill="black"/>
</svg>

<svg xmlns="http://www.w3.org/2000/svg" viewBox="0 0 24 24"><path fill="#000" d="M15.65 13.84c.232-.232.562-.336.884-.28l4.296.76.01.01.76 4.296a1.003 1.003 0 0 1-1.976.35l-.304-1.716-1.12 1.12c-3.52 3.51-9.22 3.51-12.73 0l-.24-.27a8.976 8.976 0 0 1-2.189-4.194c-.14-.644.434-1.178 1.086-1.086.457.065.808.428.92.877A6.981 6.981 0 0 0 6.89 16.96c.23.23.48.44.73.63 2.74 2.07 6.66 1.87 9.16-.63l1.12-1.12-1.715-.304a1.003 1.003 0 0 1-.534-1.697ZM5.77 8.16l1.724.306a1.002 1.002 0 0 1-.35 1.973L2.85 9.68l-.76-4.296a1 1 0 1 1 1.97-.345l.3 1.721 1.12-1.12a8.98 8.98 0 0 1 12.72 0c.04.04.075.083.11.125.035.043.07.085.11.125.15.16.3.33.44.5.09.11.18.23.27.35.16.22.3.44.44.67.011.019.024.037.037.057.021.032.044.065.063.103a8.669 8.669 0 0 1 .49 1.02l.02.05c.19.476.337.96.445 1.451.14.644-.433 1.181-1.085 1.088-.456-.064-.806-.425-.918-.872a7.141 7.141 0 0 0-.482-1.337l-.06-.12a7.15 7.15 0 0 0-.5-.84c-.019-.019-.033-.041-.05-.065a6.437 6.437 0 0 0-.75-.905 6.995 6.995 0 0 0-9.89 0L5.77 8.16Z"/></svg>
